svg/system/flame_fill.svg

<?xml version="1.0" encoding="UTF-8"?>
<svg width="24px" height="24px" viewBox="0 0 24 24" version="1.1" xmlns="http://www.w3.org/2000/svg" xmlns:xlink="http://www.w3.org/1999/xlink">
    <title>flame_fill</title>
    <g id="Icon" stroke="none" stroke-width="1" fill="none" fill-rule="evenodd">
        <g id="System" transform="translate(0.000000, -528.000000)">
            <g id="flame_fill" transform="translate(0.000000, 528.000000)">
                <path d="M24,0 L24,24 L0,24 L0,0 L24,0 Z M12.5935,23.2578 L12.5819,23.2595 L12.5109,23.295 L12.4919,23.2987 L12.4767,23.295 L12.4057,23.2595 C12.3958,23.2564 12.387,23.259 12.3821,23.2649 L12.378,23.2758 L12.3609,23.7031 L12.3659,23.7235 L12.3769,23.7357 L12.4805,23.8097 L12.4953,23.8136 L12.5071,23.8097 L12.6107,23.7357 L12.6233,23.7197 L12.6267,23.7031 L12.6096,23.2758 C12.6076,23.2657 12.601,23.2593 12.5935,23.2578 Z M12.8584,23.1453 L12.8445,23.1473 L12.6598,23.2397 L12.6499,23.2499 L12.6472,23.2611 L12.6651,23.6906 L12.6699,23.7034 L12.6784,23.7105 L12.8793,23.8032 C12.8914,23.8069 12.9022,23.803 12.9078,23.7952 L12.9118,23.7812 L12.8777,23.1665 C12.8753,23.1546 12.8674,23.147 12.8584,23.1453 Z M12.143,23.1473 C12.1332,23.1424 12.1222,23.1453 12.1156,23.1526 L12.1099,23.1665 L12.0758,23.7812 C12.0751,23.7927 12.0828,23.8019 12.0926,23.8046 L12.1083,23.8032 L12.3092,23.7105 L12.3186,23.7024 L12.3225,23.6906 L12.3404,23.2611 L12.3372,23.2485 L12.3278,23.2397 L12.143,23.1473 Z" id="MingCute" fill-rule="nonzero"></path>
                <path d="M7.74742,5.5915 C8.8486,4.33301 10.0827,3.19155 11.4188,2.18627 C11.7665,1.93791 12.2335,1.93791 12.5812,2.18627 C13.9113,3.20345 15.1487,4.32991 16.2526,5.5915 C18.5845,8.25659 20,11.0875 20,14 C20,18.4183 16.4183,22 12,22 C7.58172,22 4,18.4183 4,14 C4,11.0875 5.41546,8.25659 7.74742,5.5915 Z M12.0045,21 C14.0449,21 15.6989,19.3459 15.6989,17.3056 C15.6989,14.1389 12.0045,11.5 12.0045,11.5 C12.0045,11.5 8.31006,14.1389 8.31006,17.3056 C8.31006,19.3459 9.96412,21 12.0045,21 Z" id="形状" fill="#09244B"></path>
            </g>
        </g>
    </g>
</svg>

<svg xmlns="http://www.w3.org/2000/svg" width="24" height="24"><g fill="none" fill-rule="evenodd"><path d="M24 0v24H0V0h24ZM12.594 23.258l-.012.002-.071.035-.02.004-.014-.004-.071-.036c-.01-.003-.019 0-.024.006l-.004.01-.017.428.005.02.01.013.104.074.015.004.012-.004.104-.074.012-.016.004-.017-.017-.427c-.002-.01-.009-.017-.016-.018Zm.264-.113-.014.002-.184.093-.01.01-.003.011.018.43.005.012.008.008.201.092c.012.004.023 0 .029-.008l.004-.014-.034-.614c-.003-.012-.01-.02-.02-.022Zm-.715.002a.023.023 0 0 0-.027.006l-.006.014-.034.614c0 .012.007.02.017.024l.015-.002.201-.093.01-.008.003-.011.018-.43-.003-.012-.01-.01-.184-.092Z"/><path fill="#09244B" d="M7.747 5.592a24.263 24.263 0 0 1 3.672-3.406 1 1 0 0 1 1.162 0 25.16 25.16 0 0 1 3.672 3.406C18.584 8.256 20 11.088 20 14a8 8 0 1 1-16 0c0-2.912 1.415-5.743 3.747-8.408ZM12.005 21a3.694 3.694 0 0 0 3.694-3.694c0-3.167-3.694-5.806-3.694-5.806S8.31 14.139 8.31 17.306A3.694 3.694 0 0 0 12.004 21Z"/></g></svg>
